public/svgs/landing/linkden.svg

<svg width="40" height="41" viewBox="0 0 40 41" fill="none" xmlns="http://www.w3.org/2000/svg">
<path d="M35.5556 0.399998C36.7343 0.399998 37.8648 0.86825 38.6983 1.70175C39.5317 2.53524 40 3.6657 40 4.84444V35.9556C40 37.1343 39.5317 38.2648 38.6983 39.0983C37.8648 39.9317 36.7343 40.4 35.5556 40.4H4.44444C3.2657 40.4 2.13524 39.9317 1.30175 39.0983C0.468252 38.2648 0 37.1343 0 35.9556V4.84444C0 3.6657 0.468252 2.53524 1.30175 1.70175C2.13524 0.86825 3.2657 0.399998 4.44444 0.399998H35.5556ZM34.4444 34.8444V23.0667C34.4444 21.1453 33.6812 19.3027 32.3226 17.9441C30.964 16.5855 29.1213 15.8222 27.2 15.8222C25.3111 15.8222 23.1111 16.9778 22.0444 18.7111V16.2444H15.8444V34.8444H22.0444V23.8889C22.0444 22.1778 23.4222 20.7778 25.1333 20.7778C25.9585 20.7778 26.7498 21.1056 27.3332 21.689C27.9167 22.2724 28.2444 23.0638 28.2444 23.8889V34.8444H34.4444ZM8.62222 12.7556C9.61236 12.7556 10.562 12.3622 11.2621 11.6621C11.9622 10.962 12.3556 10.0124 12.3556 9.02222C12.3556 6.95555 10.6889 5.26666 8.62222 5.26666C7.62619 5.26666 6.67095 5.66234 5.96664 6.36664C5.26234 7.07094 4.86667 8.02618 4.86667 9.02222C4.86667 11.0889 6.55556 12.7556 8.62222 12.7556ZM11.7111 34.8444V16.2444H5.55556V34.8444H11.7111Z" fill="#6E0000"/>
</svg>

<svg width="40" height="41" fill="none" xmlns="http://www.w3.org/2000/svg">
    <path
        d="M35.556.4A4.445 4.445 0 0140 4.844v31.112a4.445 4.445 0 01-4.444 4.444H4.444A4.445 4.445 0 010 35.956V4.844A4.444 4.444 0 014.444.4h31.112zm-1.112 34.444V23.067a7.244 7.244 0 00-7.244-7.245c-1.889 0-4.089 1.156-5.156 2.89v-2.468h-6.2v18.6h6.2V23.89c0-1.711 1.378-3.111 3.09-3.111a3.111 3.111 0 013.11 3.11v10.956h6.2zM8.622 12.756a3.733 3.733 0 003.734-3.734c0-2.066-1.667-3.755-3.734-3.755a3.756 3.756 0 00-3.755 3.755c0 2.067 1.689 3.734 3.755 3.734zm3.09 22.088v-18.6H5.555v18.6h6.155z"
        fill="#9F161B" />
</svg>
